X: 35343
T: Rosewood
R: jig
M: 6/8
K: Gmajor
|:~g3 def|gdc BAG|~g3 Bcd|ecA A2f|
gfe def|gdc BAG|~c3 Adc|1 BGF GBd:|2 BGF GdA||
|:GBd GBd|ecB ~c2B|A^ce A^ce|fd^c ~d2f|
gfe dcB|edc BAG|~c3 Adc|1 BGF GdA:|2 BGF GBd||

